src/assets/outline/OmegaSquare.svg

<?xml version="1.0" encoding="UTF-8"?>
<svg width="24" height="24" viewBox="0 0 24 24" xmlns="http://www.w3.org/2000/svg">
 <path d="m15 22.75h-6c-5.43 0-7.75-2.32-7.75-7.75v-6c0-5.43 2.32-7.75 7.75-7.75h6c5.43 0 7.75 2.32 7.75 7.75v6c0 5.43-2.32 7.75-7.75 7.75zm-6-20c-4.61 0-6.25 1.64-6.25 6.25v6c0 4.61 1.64 6.25 6.25 6.25h6c4.61 0 6.25-1.64 6.25-6.25v-6c0-4.61-1.64-6.25-6.25-6.25h-6z"/>
 <path d="m17 17.5h-3.1c-0.3 0-0.57-0.17-0.69-0.45s-0.07-0.59 0.13-0.81l1.62-1.79c0.67-0.75 1.05-1.7 1.05-2.68 0-1-0.41-1.94-1.16-2.65s-1.79-1.12-2.85-1.12-2.1 0.41-2.85 1.12-1.16 1.65-1.16 2.65c0 0.98 0.36999 1.93 1.05 2.68l1.62 1.79c0.2 0.22 0.25 0.54 0.13 0.81s-0.39 0.45-0.69 0.45h-3.1c-0.41 0-0.75-0.34-0.75-0.75s0.34-0.75 0.75-0.75h1.41l-0.48999-0.54c-0.92-1.02-1.43-2.33-1.43-3.69 0-1.39 0.59001-2.76 1.63-3.74 1.04-0.99 2.42-1.53 3.88-1.53s2.84 0.54003 3.88 1.53c1.03 0.98 1.63 2.35 1.63 3.74 0 1.35-0.51 2.66-1.43 3.69l-0.49 0.54h1.41c0.41 0 0.75 0.34 0.75 0.75s-0.34 0.75-0.75 0.75z"/>
</svg>

<svg width="24" height="24" viewBox="0 0 24 24"  xmlns="http://www.w3.org/2000/svg">
<path d="M15 22.75H9C3.57 22.75 1.25 20.43 1.25 15V9C1.25 3.57 3.57 1.25 9 1.25H15C20.43 1.25 22.75 3.57 22.75 9V15C22.75 20.43 20.43 22.75 15 22.75ZM9 2.75C4.39 2.75 2.75 4.39 2.75 9V15C2.75 19.61 4.39 21.25 9 21.25H15C19.61 21.25 21.25 19.61 21.25 15V9C21.25 4.39 19.61 2.75 15 2.75H9Z" />
<path d="M17 17.5H13.9C13.6 17.5 13.33 17.33 13.21 17.05C13.09 16.77 13.14 16.46 13.34 16.24L14.96 14.45C15.63 13.7 16.01 12.75 16.01 11.77C16.01 10.77 15.6 9.83 14.85 9.12C14.1 8.41 13.06 8 12 8C10.94 8 9.90002 8.41 9.15002 9.12C8.40002 9.83 7.98999 10.77 7.98999 11.77C7.98999 12.75 8.35998 13.7 9.03998 14.45L10.66 16.24C10.86 16.46 10.91 16.78 10.79 17.05C10.67 17.32 10.4 17.5 10.1 17.5H7C6.59 17.5 6.25 17.16 6.25 16.75C6.25 16.34 6.59 16 7 16H8.40997L7.91998 15.46C6.99998 14.44 6.48999 13.13 6.48999 11.77C6.48999 10.38 7.08 9.01003 8.12 8.03003C9.16 7.04003 10.54 6.5 12 6.5C13.46 6.5 14.84 7.04003 15.88 8.03003C16.91 9.01003 17.51 10.38 17.51 11.77C17.51 13.12 17 14.43 16.08 15.46L15.59 16H17C17.41 16 17.75 16.34 17.75 16.75C17.75 17.16 17.41 17.5 17 17.5Z" />
</svg>
